src/assets/img/js.svg

<svg width="35" height="35" viewBox="0 0 35 35" fill="none" xmlns="http://www.w3.org/2000/svg">
<g id="javascript.de4c2594613e34b15666206bbede7327.svg" clip-path="url(#clip0_1_43)">
<path id="Vector" d="M0.0499878 0.5H34.05V34.5H0.0499878V0.5Z" fill="#F7DF1E"/>
<path id="Vector_2" d="M8.98986 28.9128L11.5917 27.3382C12.0937 28.2282 12.5503 28.9812 13.6456 28.9812C14.6955 28.9812 15.3576 28.5706 15.3576 26.9731V16.1093H18.5526V27.0183C18.5526 30.3276 16.6128 31.8339 13.7825 31.8339C11.2266 31.8339 9.74291 30.5102 8.98973 28.9126M20.2881 28.5705L22.8896 27.0642C23.5745 28.1826 24.4646 29.0042 26.0393 29.0042C27.3633 29.0042 28.2074 28.3423 28.2074 27.4293C28.2074 26.3339 27.3402 25.9458 25.8795 25.307L25.0809 24.9643C22.7757 23.9832 21.2466 22.7507 21.2466 20.149C21.2466 17.7525 23.0724 15.9266 25.9253 15.9266C27.9566 15.9266 29.4172 16.6342 30.467 18.4828L27.9791 20.0806C27.4313 19.0992 26.8381 18.7113 25.9252 18.7113C24.9894 18.7113 24.396 19.3047 24.396 20.0806C24.396 21.0391 24.9894 21.4273 26.3587 22.0207L27.1574 22.3629C29.8734 23.527 31.4025 24.7137 31.4025 27.3838C31.4025 30.2597 29.1431 31.8343 26.1077 31.8343C23.1408 31.8343 21.2236 30.4193 20.288 28.5706" fill="black"/>
</g>
<defs>
<clipPath id="clip0_1_43">
<rect width="34" height="34" fill="white" transform="translate(0.0499878 0.5)"/>
</clipPath>
</defs>
</svg>

<svg xmlns="http://www.w3.org/2000/svg" width="35" height="35" fill="none"><g clip-path="url(#a)"><path fill="#F7DF1E" d="M.05.5h34v34h-34V.5Z"/><path fill="#000" d="m8.99 28.913 2.602-1.575c.502.89.958 1.643 2.054 1.643 1.05 0 1.712-.41 1.712-2.008V16.11h3.195v10.91c0 3.309-1.94 4.815-4.77 4.815-2.556 0-4.04-1.324-4.793-2.921m11.298-.343 2.602-1.506c.684 1.119 1.575 1.94 3.15 1.94 1.323 0 2.167-.662 2.167-1.575 0-1.095-.867-1.483-2.328-2.122l-.798-.343c-2.305-.98-3.834-2.213-3.834-4.815 0-2.396 1.825-4.222 4.678-4.222 2.032 0 3.492.707 4.542 2.556l-2.488 1.598c-.548-.982-1.14-1.37-2.054-1.37-.936 0-1.529.594-1.529 1.37 0 .958.593 1.346 1.963 1.94l.798.342c2.716 1.164 4.245 2.35 4.245 5.02 0 2.877-2.259 4.451-5.294 4.451-2.967 0-4.884-1.415-5.82-3.263"/></g><defs><clipPath id="a"><path fill="#fff" d="M.05.5h34v34h-34z"/></clipPath></defs></svg>
